my-site/themes/moving-test/assets/images/map-button.svg

<svg width="130" height="19" viewBox="0 0 130 19" fill="none" xmlns="http://www.w3.org/2000/svg">
<path d="M4.851 13.252C3.729 13.252 2.802 13.015 2.07 12.541C1.344 12.067 0.894 11.407 0.72 10.561L1.782 10.381C1.932 10.957 2.286 11.416 2.844 11.758C3.402 12.1 4.086 12.271 4.896 12.271C5.7 12.271 6.339 12.1 6.813 11.758C7.287 11.416 7.524 10.948 7.524 10.354C7.524 10.03 7.449 9.766 7.299 9.562C7.155 9.352 6.867 9.16 6.435 8.986C6.003 8.812 5.361 8.608 4.509 8.374C3.609 8.134 2.904 7.894 2.394 7.654C1.89 7.414 1.533 7.141 1.323 6.835C1.119 6.529 1.017 6.154 1.017 5.71C1.017 5.176 1.17 4.708 1.476 4.306C1.782 3.898 2.208 3.58 2.754 3.352C3.306 3.124 3.942 3.01 4.662 3.01C5.382 3.01 6.03 3.13 6.606 3.37C7.182 3.604 7.647 3.934 8.001 4.36C8.355 4.78 8.559 5.269 8.613 5.827L7.551 6.025C7.449 5.401 7.134 4.909 6.606 4.549C6.078 4.183 5.418 3.997 4.626 3.991C3.876 3.979 3.264 4.129 2.79 4.441C2.316 4.747 2.079 5.152 2.079 5.656C2.079 5.944 2.16 6.19 2.322 6.394C2.49 6.592 2.784 6.775 3.204 6.943C3.624 7.111 4.218 7.291 4.986 7.483C5.922 7.723 6.651 7.969 7.173 8.221C7.701 8.473 8.073 8.77 8.289 9.112C8.505 9.448 8.613 9.865 8.613 10.363C8.613 11.263 8.277 11.971 7.605 12.487C6.939 12.997 6.021 13.252 4.851 13.252ZM17.7306 13V7.942C17.7306 7.33 17.6676 6.784 17.5416 6.304C17.4216 5.824 17.2356 5.416 16.9836 5.08C16.7376 4.744 16.4256 4.489 16.0476 4.315C15.6756 4.141 15.2346 4.054 14.7246 4.054C14.1966 4.054 13.7376 4.147 13.3476 4.333C12.9636 4.513 12.6456 4.768 12.3936 5.098C12.1476 5.428 11.9616 5.821 11.8356 6.277C11.7156 6.727 11.6556 7.219 11.6556 7.753L10.8366 7.654C10.8366 6.604 11.0136 5.74 11.3676 5.062C11.7276 4.378 12.2106 3.874 12.8166 3.55C13.4226 3.22 14.1036 3.055 14.8596 3.055C15.3936 3.055 15.8706 3.133 16.2906 3.289C16.7166 3.445 17.0856 3.667 17.3976 3.955C17.7096 4.237 17.9676 4.573 18.1716 4.963C18.3756 5.347 18.5256 5.77 18.6216 6.232C18.7236 6.694 18.7746 7.177 18.7746 7.681V13H17.7306ZM10.6116 13V0.0399995H11.5566V7.528H11.6556V13H10.6116ZM25.0927 13.27C24.1267 13.27 23.3077 13.051 22.6357 12.613C21.9637 12.175 21.4507 11.569 21.0967 10.795C20.7427 10.021 20.5657 9.13 20.5657 8.122C20.5657 7.108 20.7457 6.217 21.1057 5.449C21.4657 4.675 21.9817 4.075 22.6537 3.649C23.3317 3.223 24.1447 3.01 25.0927 3.01C26.0587 3.01 26.8777 3.229 27.5497 3.667C28.2277 4.099 28.7407 4.699 29.0887 5.467C29.4427 6.235 29.6197 7.12 29.6197 8.122C29.6197 9.148 29.4427 10.048 29.0887 10.822C28.7347 11.59 28.2187 12.19 27.5407 12.622C26.8627 13.054 26.0467 13.27 25.0927 13.27ZM25.0927 12.262C26.2387 12.262 27.0937 11.878 27.6577 11.11C28.2277 10.342 28.5127 9.346 28.5127 8.122C28.5127 6.874 28.2277 5.878 27.6577 5.134C27.0877 4.39 26.2327 4.018 25.0927 4.018C24.3187 4.018 23.6797 4.195 23.1757 4.549C22.6717 4.897 22.2937 5.38 22.0417 5.998C21.7957 6.61 21.6727 7.318 21.6727 8.122C21.6727 9.37 21.9607 10.372 22.5367 11.128C23.1187 11.884 23.9707 12.262 25.0927 12.262ZM33.3183 13L30.3483 3.28H31.4103L33.8493 11.263L36.2883 3.28H37.2873L39.7353 11.263L42.1833 3.28H43.2273L40.2573 13H39.2853L36.7923 4.909L34.2903 13H33.3183ZM52.4443 13.27C51.4783 13.27 50.6593 13.051 49.9873 12.613C49.3153 12.175 48.8023 11.569 48.4483 10.795C48.0943 10.021 47.9173 9.13 47.9173 8.122C47.9173 7.108 48.0973 6.217 48.4573 5.449C48.8173 4.675 49.3333 4.075 50.0053 3.649C50.6833 3.223 51.4963 3.01 52.4443 3.01C53.4103 3.01 54.2293 3.229 54.9013 3.667C55.5793 4.099 56.0923 4.699 56.4403 5.467C56.7943 6.235 56.9713 7.12 56.9713 8.122C56.9713 9.148 56.7943 10.048 56.4403 10.822C56.0863 11.59 55.5703 12.19 54.8923 12.622C54.2143 13.054 53.3983 13.27 52.4443 13.27ZM52.4443 12.262C53.5903 12.262 54.4453 11.878 55.0093 11.11C55.5793 10.342 55.8643 9.346 55.8643 8.122C55.8643 6.874 55.5793 5.878 55.0093 5.134C54.4393 4.39 53.5843 4.018 52.4443 4.018C51.6703 4.018 51.0313 4.195 50.5273 4.549C50.0233 4.897 49.6453 5.38 49.3933 5.998C49.1473 6.61 49.0243 7.318 49.0243 8.122C49.0243 9.37 49.3123 10.372 49.8883 11.128C50.4703 11.884 51.3223 12.262 52.4443 12.262ZM66.0704 13V7.942C66.0704 7.33 66.0074 6.784 65.8814 6.304C65.7614 5.824 65.5754 5.416 65.3234 5.08C65.0774 4.744 64.7654 4.489 64.3874 4.315C64.0154 4.141 63.5744 4.054 63.0644 4.054C62.5364 4.054 62.0774 4.147 61.6874 4.333C61.3034 4.513 60.9854 4.768 60.7334 5.098C60.4874 5.428 60.3014 5.821 60.1754 6.277C60.0554 6.727 59.9954 7.219 59.9954 7.753L59.1764 7.654C59.1764 6.604 59.3534 5.74 59.7074 5.062C60.0674 4.378 60.5504 3.874 61.1564 3.55C61.7624 3.22 62.4434 3.055 63.1994 3.055C63.7334 3.055 64.2104 3.133 64.6304 3.289C65.0564 3.445 65.4254 3.667 65.7374 3.955C66.0494 4.237 66.3074 4.573 66.5114 4.963C66.7154 5.347 66.8654 5.77 66.9614 6.232C67.0634 6.694 67.1144 7.177 67.1144 7.681V13H66.0704ZM58.9514 13V3.28H59.8964V5.467H59.9954V13H58.9514ZM84.6141 13L84.6321 6.466C84.6321 5.68 84.4071 5.065 83.9571 4.621C83.5131 4.171 82.9581 3.946 82.2921 3.946C81.9141 3.946 81.5391 4.033 81.1671 4.207C80.8011 4.381 80.4951 4.663 80.2491 5.053C80.0031 5.443 79.8801 5.971 79.8801 6.637L79.1511 6.52C79.1271 5.812 79.2561 5.197 79.5381 4.675C79.8261 4.147 80.2221 3.739 80.7261 3.451C81.2361 3.163 81.8151 3.019 82.4631 3.019C83.4171 3.019 84.1881 3.313 84.7761 3.901C85.3701 4.489 85.6671 5.293 85.6671 6.313L85.6491 13H84.6141ZM73.0491 13V3.28H73.9941V5.467H74.0841V13H73.0491ZM78.8361 13L78.8541 6.565C78.8541 5.761 78.6351 5.125 78.1971 4.657C77.7591 4.183 77.1891 3.946 76.4871 3.946C75.7731 3.946 75.1941 4.192 74.7501 4.684C74.3061 5.17 74.0841 5.821 74.0841 6.637L73.3641 6.277C73.3641 5.647 73.5081 5.089 73.7961 4.603C74.0841 4.111 74.4771 3.724 74.9751 3.442C75.4791 3.16 76.0551 3.019 76.7031 3.019C77.2851 3.019 77.8161 3.142 78.2961 3.388C78.7761 3.634 79.1601 4.006 79.4481 4.504C79.7361 4.996 79.8801 5.614 79.8801 6.358L79.8621 13H78.8361ZM90.816 13.27C90.066 13.27 89.442 13.138 88.944 12.874C88.452 12.61 88.083 12.262 87.837 11.83C87.591 11.392 87.468 10.918 87.468 10.408C87.468 9.856 87.582 9.394 87.81 9.022C88.044 8.65 88.353 8.35 88.737 8.122C89.127 7.894 89.556 7.723 90.024 7.609C90.558 7.489 91.134 7.387 91.752 7.303C92.37 7.213 92.958 7.135 93.516 7.069C94.08 7.003 94.539 6.946 94.893 6.898L94.515 7.123C94.539 6.073 94.341 5.293 93.921 4.783C93.507 4.267 92.775 4.009 91.725 4.009C90.987 4.009 90.378 4.177 89.898 4.513C89.424 4.843 89.091 5.356 88.899 6.052L87.837 5.755C88.059 4.873 88.506 4.195 89.178 3.721C89.85 3.247 90.711 3.01 91.761 3.01C92.655 3.01 93.405 3.184 94.011 3.532C94.623 3.88 95.049 4.369 95.289 4.999C95.391 5.257 95.46 5.56 95.496 5.908C95.532 6.25 95.55 6.595 95.55 6.943V13H94.605V10.444L94.956 10.534C94.662 11.41 94.149 12.085 93.417 12.559C92.685 13.033 91.818 13.27 90.816 13.27ZM90.87 12.316C91.53 12.316 92.109 12.199 92.607 11.965C93.105 11.725 93.507 11.392 93.813 10.966C94.125 10.534 94.323 10.027 94.407 9.445C94.467 9.121 94.5 8.77 94.506 8.392C94.512 8.014 94.515 7.735 94.515 7.555L94.965 7.843C94.575 7.891 94.107 7.942 93.561 7.996C93.021 8.05 92.469 8.116 91.905 8.194C91.341 8.272 90.831 8.371 90.375 8.491C90.093 8.569 89.808 8.683 89.52 8.833C89.238 8.977 89.001 9.178 88.809 9.436C88.623 9.694 88.53 10.021 88.53 10.417C88.53 10.711 88.602 11.005 88.746 11.299C88.896 11.593 89.142 11.836 89.484 12.028C89.826 12.22 90.288 12.316 90.87 12.316ZM102.144 13.27C101.268 13.27 100.527 13.042 99.921 12.586C99.315 12.13 98.853 11.515 98.535 10.741C98.217 9.967 98.058 9.094 98.058 8.122C98.058 7.144 98.217 6.271 98.535 5.503C98.853 4.729 99.324 4.12 99.948 3.676C100.572 3.232 101.337 3.01 102.243 3.01C103.125 3.01 103.878 3.235 104.502 3.685C105.126 4.135 105.6 4.747 105.924 5.521C106.254 6.295 106.419 7.162 106.419 8.122C106.419 9.094 106.251 9.97 105.915 10.75C105.585 11.524 105.102 12.139 104.466 12.595C103.836 13.045 103.062 13.27 102.144 13.27ZM97.887 17.32V3.28H98.832V10.768H98.922V17.32H97.887ZM102.081 12.28C102.795 12.28 103.389 12.097 103.863 11.731C104.343 11.365 104.703 10.87 104.943 10.246C105.189 9.616 105.312 8.908 105.312 8.122C105.312 7.342 105.192 6.643 104.952 6.025C104.718 5.401 104.361 4.909 103.881 4.549C103.407 4.183 102.801 4 102.063 4C101.349 4 100.752 4.177 100.272 4.531C99.792 4.879 99.432 5.365 99.192 5.989C98.952 6.613 98.832 7.324 98.832 8.122C98.832 8.914 98.949 9.625 99.183 10.255C99.423 10.879 99.783 11.374 100.263 11.74C100.749 12.1 101.355 12.28 102.081 12.28Z" fill="white"/>
<path d="M0 14.125H107.139V14.575H0V14.125Z" fill="white"/>
<path d="M114.143 13.6561L126.919 6.91965M126.919 6.91965L118.75 5.21786M126.919 6.91965L123.709 14.6216" stroke="white"/>
</svg>

<svg xmlns="http://www.w3.org/2000/svg" width="130" height="19" fill="none" viewBox="0 0 130 19"><path fill="#fff" d="M4.851 13.252q-1.683 0-2.781-.711a3 3 0 0 1-1.35-1.98l1.062-.18q.225.864 1.062 1.377t2.052.513q1.206 0 1.917-.513t.711-1.404q0-.486-.225-.792-.216-.315-.864-.576t-1.926-.612q-1.35-.36-2.115-.72-.756-.36-1.071-.819-.306-.459-.306-1.125 0-.801.459-1.404.459-.612 1.278-.954.828-.342 1.908-.342t1.944.36q.864.351 1.395.99.531.63.612 1.467l-1.062.198a2.14 2.14 0 0 0-.945-1.476Q5.814 4 4.626 3.991q-1.125-.018-1.836.45-.711.459-.711 1.215 0 .432.243.738.252.297.882.549t1.782.54q1.404.36 2.187.738.792.378 1.116.891.324.504.324 1.251 0 1.35-1.008 2.124-.999.765-2.754.765M17.731 13V7.942q0-.918-.19-1.638a3.4 3.4 0 0 0-.557-1.224 2.37 2.37 0 0 0-.936-.765q-.558-.261-1.323-.261-.792 0-1.377.279-.576.27-.954.765-.369.495-.558 1.179-.18.675-.18 1.476l-.82-.099q0-1.575.532-2.592.54-1.026 1.449-1.512.909-.495 2.043-.495a4.1 4.1 0 0 1 1.43.234q.64.234 1.108.666.468.423.774 1.008.306.576.45 1.269.153.693.153 1.449V13zm-7.12 0V.04h.946v7.488h.099V13zm14.482.27q-1.449 0-2.457-.657t-1.54-1.818q-.53-1.161-.53-2.673 0-1.521.54-2.673.54-1.161 1.548-1.8 1.016-.639 2.439-.639 1.449 0 2.457.657a4.07 4.07 0 0 1 1.539 1.8q.53 1.152.53 2.655 0 1.539-.53 2.7a4.13 4.13 0 0 1-1.548 1.8q-1.017.648-2.448.648m0-1.008q1.718 0 2.565-1.152.855-1.152.855-2.988 0-1.872-.855-2.988t-2.565-1.116q-1.161 0-1.917.531-.756.522-1.134 1.449-.37.918-.37 2.124 0 1.872.865 3.006.873 1.134 2.556 1.134m8.225.738-2.97-9.72h1.062l2.44 7.983 2.438-7.983h1l2.447 7.983 2.448-7.983h1.044L40.257 13h-.972l-2.493-8.091L34.29 13zm19.126.27q-1.449 0-2.457-.657t-1.539-1.818-.53-2.673q0-1.521.54-2.673.54-1.161 1.547-1.8 1.017-.639 2.44-.639 1.448 0 2.456.657a4.07 4.07 0 0 1 1.54 1.8q.53 1.152.53 2.655 0 1.539-.53 2.7a4.13 4.13 0 0 1-1.549 1.8q-1.017.648-2.448.648m0-1.008q1.719 0 2.565-1.152.855-1.152.855-2.988 0-1.872-.855-2.988t-2.565-1.116q-1.161 0-1.917.531-.756.522-1.134 1.449-.369.918-.369 2.124 0 1.872.864 3.006.873 1.134 2.556 1.134M66.07 13V7.942q0-.918-.189-1.638a3.4 3.4 0 0 0-.558-1.224 2.37 2.37 0 0 0-.936-.765q-.558-.261-1.323-.261-.792 0-1.377.279-.576.27-.954.765-.369.495-.558 1.179-.18.675-.18 1.476l-.819-.099q0-1.575.531-2.592.54-1.026 1.45-1.512.908-.495 2.042-.495a4.1 4.1 0 0 1 1.431.234q.639.234 1.107.666.468.423.774 1.008.306.576.45 1.269.153.693.153 1.449V13zm-7.119 0V3.28h.945v2.187h.1V13zm25.663 0 .018-6.534q0-1.179-.675-1.845-.666-.675-1.665-.675-.567 0-1.125.261-.549.261-.918.846t-.369 1.584l-.729-.117q-.036-1.062.387-1.845a3.07 3.07 0 0 1 1.188-1.224q.766-.432 1.737-.432 1.431 0 2.313.882.891.882.891 2.412L85.65 13zM73.05 13V3.28h.945v2.187h.09V13zm5.787 0 .018-6.435q0-1.206-.657-1.908-.657-.711-1.71-.711-1.071 0-1.737.738-.666.729-.666 1.953l-.72-.36q0-.945.432-1.674a3.13 3.13 0 0 1 1.18-1.161q.756-.423 1.727-.423.873 0 1.593.369t1.152 1.116q.432.738.432 1.854L79.862 13zm11.98.27q-1.125 0-1.872-.396-.738-.396-1.107-1.044a2.86 2.86 0 0 1-.369-1.422q0-.828.342-1.386.351-.558.927-.9.585-.342 1.287-.513a21 21 0 0 1 1.728-.306q.927-.135 1.764-.234a79 79 0 0 0 1.377-.171l-.378.225q.036-1.575-.594-2.34-.621-.774-2.196-.774-1.107 0-1.827.504-.711.495-.999 1.539l-1.062-.297q.333-1.323 1.341-2.034t2.583-.711q1.341 0 2.25.522.918.522 1.278 1.467.153.387.207.909.054.513.054 1.035V13h-.945v-2.556l.351.09q-.441 1.314-1.539 2.025t-2.601.711m.054-.954q.99 0 1.737-.351.747-.36 1.206-.999.468-.648.594-1.521.09-.486.099-1.053t.009-.837l.45.288q-.585.072-1.404.153-.81.081-1.656.198t-1.53.297a4.4 4.4 0 0 0-.855.342 2 2 0 0 0-.711.603q-.279.387-.279.981 0 .441.216.882.225.441.738.729t1.386.288m11.274.954q-1.314 0-2.223-.684t-1.386-1.845-.477-2.619q0-1.467.477-2.619.477-1.161 1.413-1.827t2.295-.666q1.323 0 2.259.675t1.422 1.836q.495 1.161.495 2.601 0 1.458-.504 2.628-.495 1.161-1.449 1.845-.945.675-2.322.675m-4.257 4.05V3.28h.945v7.488h.09v6.552zm4.194-5.04q1.071 0 1.782-.549.72-.549 1.08-1.485.369-.945.369-2.124 0-1.17-.36-2.097-.351-.936-1.071-1.476Q103.17 4 102.063 4q-1.071 0-1.791.531-.72.522-1.08 1.458t-.36 2.133q0 1.188.351 2.133.36.936 1.08 1.485.729.54 1.818.54"/><path fill="#fff" d="M0 14.125h107.139v.45H0z"/><path stroke="#fff" d="m114.143 13.656 12.776-6.736m0 0-8.169-1.702m8.169 1.702-3.21 7.702"/></svg>
